T: Stage, The
M: 4/4
L: 1/8
K: Gmaj
g>ag>e d>gb>d | c>fa>c B>dg>d | B>Gd>B c>Aa>g | (3fgf (3efe d>ef>d | g>ag>e d>gb>d | c>fa>c B>dg>d | B>gf>g e>cA>F | G2 G2 G2 :|B>GF>G E>GD>G | B,>DG>B c>BA>G | A>^GA>B c>BA>G | (3GBG (3FGE (3DEC (3B,CA, | G,>B,D>G B>dc>B | c>de>f g>fg>e | d>bc>a e>cA>F | G2 G2 G2 :|gage dgbd | cfac Bdgd | BGdB cAag | (3fgf (3efe defd | gage dgbd | cfac Bdgd | Bgfg ecAF | G2 G2 G2 :|BGFG EGG | B,DGB cBAG | A^GAB cBAG | (3GBG (3FGE (3DEC (3B,CA, | G,B,DG BdcB | cdef gfge | dbca ecAF | G2 G2 G2 :|
